X:0131
M:2/4
L:1/8
Q:1/4=124
K:G
gGgG | gGG2     |F/G/A/B/ A2|F/G/A/B/ A2 |
gGgG | gGGA     |B2       AG|DG       G2:|

